packages/nodes-base/nodes/Files/ExtractFromFile/extractFromFile.svg

<svg xmlns="http://www.w3.org/2000/svg" width="512" height="512" fill="none"><path fill="#035" d="M0 39.816C0 33.29 5.287 28 11.808 28H168.41v161.704c0 6.627 5.372 12 12 12H342V287h-74c-24.301 0-44 19.699-44 44v24c0 24.301 19.699 44 44 44h74v74.184c0 6.526-5.287 11.816-11.808 11.816H11.808C5.287 485 0 479.71 0 473.184z"/><path fill="#035" d="M199.898 34a6 6 0 0 1 6-6h2.666c3.136 0 6.144 1.249 8.359 3.47l121.628 121.998a11.82 11.82 0 0 1 3.449 8.345v2.382a6 6 0 0 1-6 6H205.898a6 6 0 0 1-6-6z"/><path fill="#035" fill-rule="evenodd" d="M381.077 415.982c-9.399 9.347-9.441 24.543-.095 33.941s24.543 9.441 33.941.095l90-89.5a24 24 0 0 0 0-34.036l-90-89.5c-9.398-9.346-24.594-9.304-33.941.095-9.346 9.398-9.304 24.594.095 33.941L429.327 319H268c-6.627 0-12 5.373-12 12v24c0 6.627 5.373 12 12 12h162.333z" clip-rule="evenodd"/></svg>

<svg width="512" height="512" viewBox="0 0 512 512" fill="none" xmlns="http://www.w3.org/2000/svg">
<path d="M0 39.8158C0 33.2901 5.28667 28 11.8081 28H168.41V189.704C168.41 196.331 173.782 201.704 180.41 201.704H342L342 287H268C243.699 287 224 306.699 224 331V355C224 379.301 243.699 399 268 399L342 399L342 473.184C342 479.71 336.713 485 330.192 485H11.8081C5.28667 485 0 479.71 0 473.184V39.8158Z" fill="#003355"/>
<path d="M199.898 34C199.898 30.6863 202.584 28 205.898 28H208.564C211.7 28 214.708 29.2487 216.923 31.4707L338.551 153.468C340.76 155.683 342 158.684 342 161.813L342 164.195C342 167.509 339.314 170.195 336 170.195H205.898C202.584 170.195 199.898 167.509 199.898 164.195V34Z" fill="#003355"/>
<path fill-rule="evenodd" clip-rule="evenodd" d="M381.077 415.982C371.678 425.329 371.636 440.525 380.982 449.923C390.329 459.322 405.525 459.364 414.923 450.018L504.923 360.518C509.453 356.013 512 349.888 512 343.5C512 337.112 509.453 330.987 504.923 326.482L414.923 236.982C405.525 227.636 390.329 227.678 380.982 237.077C371.636 246.475 371.678 261.671 381.077 271.018L429.327 319L268 319C261.373 319 256 324.373 256 331L256 355C256 361.627 261.373 367 268 367L430.333 367L381.077 415.982Z" fill="#003355"/>
</svg>
